!!!OTL: UNSER BRUDER MALCHER
!!!ARE: Europa, Mitteleuropa, Deutschland, Schlesien
!!!SCT: E1754
!!!YEM: Copyright 1995, estate of Helmut Schaffrath.
**kern
*ICvox
*Ivox
*M3/4
*k[b-]
*F:
=1
{4.f
8g
8a
8b-
=2
4cc
4.cc}
{8a
=3
8b-
8a
4b-
4g
=4
2a}
{4c
=5
4.f
8g
8a
8b-
=6
4cc
4.cc}
{8a
=7
8b-
8a
4b-
4g
=8
4a
8r}
{8a
8a
8b-
=9
4.cc
8cc
8dd
8cc
=10
8cc
8b-
8b-}
{8g
8g
8a
=11
4.b-
8b-
8cc
8b-
=12
8b-
8a
4a
4r}
=13
{4cc
4a
4g
=14
4.f
8g
8a
8b-}
=15
{8cc
8b-
4a
4g
=16
2f
4r}
==
!!!AGN: Scherz - Lied
!!!ONB: ESAC (Essen Associative Code) Database: ERK3
!!!AMT: simple triple
!!!AIN: vox
!!!EED: Helmut Schaffrath
!!!EEV: 1.0
*-
